Newaita-dark/apps/24/python.svg

<svg height="24pt" viewBox="0 0 24 24" width="24pt" xmlns="http://www.w3.org/2000/svg" xmlns:xlink="http://www.w3.org/1999/xlink"><linearGradient id="a"><stop offset="0" stop-opacity=".313726"/><stop offset=".222222" stop-opacity=".27451"/><stop offset="1" stop-opacity="0"/></linearGradient><radialGradient id="b" cx="450.908936" cy="189.579361" gradientTransform="matrix(.00000013 -.0512744 -.105479 -.00000007 32.15201 44.486631)" gradientUnits="userSpaceOnUse" r="21.166656" xlink:href="#a"/><radialGradient id="c" cx="450.908936" cy="189.579361" gradientTransform="matrix(-.00000013 .0512744 .105479 .00000007 -8.337235 -2.187673)" gradientUnits="userSpaceOnUse" r="21.166656" xlink:href="#a"/><radialGradient id="d" cx="450.908936" cy="189.579361" gradientTransform="matrix(-.00000013 -.0512744 .105479 -.00000007 -8.337235 44.486631)" gradientUnits="userSpaceOnUse" r="21.166656" xlink:href="#a"/><radialGradient id="e" cx="450.908936" cy="189.579361" gradientTransform="matrix(.00000013 .0512744 -.105479 .00000007 32.152008 -2.187673)" gradientUnits="userSpaceOnUse" r="21.166656" xlink:href="#a"/><linearGradient id="f" gradientTransform="matrix(.01002 0 0 .0410195 9.349039 11.571427)" gradientUnits="userSpaceOnUse" x1="255.323059" x2="255.323044" y1="233.5" y2="254.666656"><stop offset="0" stop-opacity=".27451"/><stop offset="1" stop-opacity="0"/></linearGradient><linearGradient id="g" gradientUnits="userSpaceOnUse" x1="12.40353487505" x2="12.40353487505" y1="21.02545025" y2="7.13349181251"><stop offset="0" stop-color="#ffa726"/><stop offset="1" stop-color="#ffb74d"/></linearGradient><linearGradient id="h" gradientUnits="userSpaceOnUse" x1="8.93052" x2="8.93052" y1="16.06399814717" y2="2.17207757661"><stop offset="0" stop-color="#42a5f5"/><stop offset="1" stop-color="#64b5f6"/></linearGradient><path d="m12.402344 21.148438h1.984375v-.867188h-1.984375zm0 0" fill="url(#b)"/><path d="m11.410156 21.148438h-1.984375v.871093h1.984375zm0 0" fill="url(#c)"/><path d="m11.410156 21.148438h-1.984375v-.867188h1.984375zm0 0" fill="url(#d)"/><path d="m12.402344 21.148438h1.984375v.871093h-1.984375zm0 0" fill="url(#e)"/><path d="m11.410156 20.933594h.992188v1.085937h-.992188zm0 0" fill="url(#f)"/><path d="m10.417969 2.855469c-.273438 0-.496094.21875-.496094.496093 0 .042969.007813.082032.015625.121094.054688-.210937.25-.371094.480469-.371094.234375 0 .425781.160157.480469.371094.011718-.039062.015624-.078125.015624-.121094 0-.277343-.21875-.496093-.496093-.496093zm-2.835938 2.976562c-.019531.082031-.035156.164063-.050781.246094h4.375v-.246094zm8.789063 3.96875c0 .824219-.664063 1.488281-1.488282 1.488281h-5.953124c-.824219 0-1.488282.664063-1.488282 1.488282v.246094c0-.824219.664063-1.488282 1.488282-1.488282h5.953124c.824219 0 1.488282-.664062 1.488282-1.488281zm-13.886719 1.613281c-.003906.039063-.003906.082032-.003906.121094 0 2.476563 2.214843 4.46875 4.960937 4.46875v-.25c-2.703125 0-4.886718-1.925781-4.957031-4.339844zm0 0" fill-opacity=".235294"/><path d="m11.90625 21.027344c2.167969 0 3.964844-1.699219 4.378906-3.972656h-4.378906v-.992188h2.976562.003907 1.484375c2.75 0 4.964844-1.988281 4.964844-4.464844 0-2.472656-2.214844-4.464844-4.964844-4.464844v2.976563c0 .824219-.664063 1.488281-1.488282 1.488281h-5.953124c-.824219 0-1.488282.664063-1.488282 1.488282v2.976562c0 2.75 1.992188 4.964844 4.464844 4.964844zm1.488281-.996094c-.273437 0-.496093-.21875-.496093-.496094 0-.273437.222656-.496094.496093-.496094.277344 0 .496094.222657.496094.496094 0 .277344-.21875.496094-.496094.496094zm0 0" fill="url(#g)"/><path d="m7.441406 10.109375v3.472656c0-.824219.664063-1.488281 1.488282-1.488281h5.953124c.824219 0 1.488282-.664062 1.488282-1.488281v-.496094zm0 0" fill-opacity=".235294"/><path d="m11.90625 2.171875c-2.167969 0-3.964844 1.699219-4.375 3.96875h4.375v.992187h-4.464844c-2.746094 0-4.960937 1.992188-4.960937 4.464844 0 2.476563 2.214843 4.464844 4.960937 4.464844v-2.976562c0-.824219.664063-1.488282 1.488282-1.488282h5.953124c.824219 0 1.488282-.664062 1.488282-1.488281v-2.976563c0-2.746093-1.988282-4.960937-4.464844-4.960937zm-1.488281.992187c.277343 0 .496093.222657.496093.496094 0 .273438-.21875.496094-.496093.496094-.273438 0-.496094-.222656-.496094-.496094 0-.273437.222656-.496094.496094-.496094zm0 0" fill="url(#h)"/><path d="m11.90625 2.234375c-2.167969 0-3.964844 1.699219-4.375 3.96875h.050781c.492188-2.144531 2.238281-3.722656 4.324219-3.722656 2.476562 0 4.464844 2.214843 4.464844 4.964843v-.25c0-2.75-1.988282-4.960937-4.464844-4.960937zm-1.96875 1.613281c-.007812.039063-.015625.078125-.015625.121094 0 .277344.222656.496094.496094.496094.277343 0 .496093-.21875.496093-.496094 0-.042969-.003906-.082031-.015624-.121094-.054688.214844-.246094.371094-.480469.371094-.230469 0-.425781-.15625-.480469-.371094zm-1.007812 3.347656h-1.488282c-2.746094 0-4.960937 1.992188-4.960937 4.464844 0 .042969 0 .082032.003906.125.070313-2.417968 2.253906-4.339844 4.957031-4.339844h4.464844v-.25zm0 0" fill="#fff" fill-opacity=".392157"/><path d="m16.371094 7.195312v.25c2.703125 0 4.886718 1.921876 4.960937 4.339844 0-.042968.003907-.082031.003907-.125 0-2.472656-2.214844-4.464844-4.964844-4.464844zm-4.464844 9.921876v.25h4.328125c.015625-.082032.035156-.164063.050781-.25zm1.007812 2.605468c-.007812.039063-.015624.082032-.015624.125 0 .273438.222656.496094.496093.496094.277344 0 .496094-.222656.496094-.496094 0-.042968-.003906-.085937-.015625-.125-.054688.214844-.246094.371094-.480469.371094-.230469 0-.425781-.15625-.480469-.371094zm0 0" fill="#fff" fill-opacity=".392157"/><path d="m21.332031 11.414062c-.074219 2.414063-2.257812 4.339844-4.960937 4.339844h-1.484375s0 0-.003907 0h-2.976562v.25h2.976562.003907 1.484375c2.75 0 4.964844-1.992187 4.964844-4.46875 0-.039062-.003907-.082031-.003907-.121094zm-13.890625 4.339844v.25c0 2.746094 1.992188 4.960938 4.464844 4.960938 2.167969 0 3.964844-1.699219 4.378906-3.96875h-.050781c-.496094 2.144531-2.238281 3.71875-4.328125 3.71875-2.472656 0-4.464844-2.210938-4.464844-4.960938zm5.953125 2.976563c-.273437 0-.496093.222656-.496093.496093 0 .042969.007812.085938.015624.125.054688-.214843.25-.371093.480469-.371093.234375 0 .425781.15625.480469.371093.011719-.039062.015625-.082031.015625-.125 0-.273437-.21875-.496093-.496094-.496093zm0 0" fill-opacity=".235294"/><path d="m11.90625 2.101562c-2.203125 0-4.027344 1.726563-4.445312 4.027344-.003907.019532.003906.042969.015624.058594.011719.015625.035157.023438.054688.023438h4.304688v.851562h-2.90625-1.488282c-2.78125 0-5.03125 2.019531-5.03125 4.535156s2.25 4.535156 5.03125 4.535156c.039063 0 .070313-.03125.070313-.070312v-2.976562c0-.785157.632812-1.417969 1.417969-1.417969h5.953124c.863282 0 1.558594-.695313 1.558594-1.558594v-2.976563c0-2.78125-2.019531-5.03125-4.535156-5.03125zm0 .140626c2.433594 0 4.394531 2.175781 4.394531 4.890624v2.976563c0 .789063-.628906 1.417969-1.417969 1.417969h-5.953124c-.863282 0-1.558594.699218-1.558594 1.558594v2.90625c-2.679688-.035157-4.820313-1.984376-4.820313-4.394532 0-2.429687 2.175781-4.394531 4.890625-4.394531h4.464844c.039062 0 .070312-.03125.070312-.070313v-.992187c0-.039063-.03125-.070313-.070312-.070313h-4.289062c.433593-2.199218 2.1875-3.828124 4.289062-3.828124zm-1.488281.851562c-.3125 0-.566407.253906-.566407.566406s.253907.566406.566407.566406.566406-.253906.566406-.566406-.253906-.566406-.566406-.566406zm0 .140625c.238281 0 .425781.1875.425781.425781 0 .238282-.1875.425782-.425781.425782-.234375 0-.425781-.1875-.425781-.425782 0-.238281.191406-.425781.425781-.425781zm0 0" fill="#212121"/><path d="m16.371094 7.0625c-.039063 0-.070313.03125-.070313.070312v2.976563c0 .789063-.628906 1.417969-1.417969 1.417969h-5.953124c-.863282 0-1.558594.699218-1.558594 1.558594v2.976562c0 2.785156 2.019531 5.035156 4.535156 5.035156 2.207031 0 4.03125-1.730468 4.445312-4.027344.003907-.023437 0-.042968-.011718-.058593-.015625-.015625-.035156-.027344-.054688-.027344h-4.308594v-.851563h2.90625.003907 1.484375c2.785156 0 5.035156-2.019531 5.035156-4.535156s-2.25-4.535156-5.035156-4.535156zm.070312.144531c2.683594.035157 4.824219 1.980469 4.824219 4.390625 0 2.433594-2.179687 4.394532-4.894531 4.394532h-1.484375c-.003907 0-.003907 0-.003907 0h-2.976562c-.039062 0-.070312.03125-.070312.070312v.992188c0 .039062.03125.070312.070312.070312h4.289062c-.433593 2.199219-2.183593 3.832031-4.289062 3.832031-2.429688 0-4.394531-2.179687-4.394531-4.894531v-2.976562c0-.785157.632812-1.417969 1.417969-1.417969h5.953124c.863282 0 1.558594-.695313 1.558594-1.558594zm-3.046875 11.761719c-.3125 0-.566406.253906-.566406.566406 0 .316406.253906.566406.566406.566406s.566407-.25.566407-.566406c0-.3125-.253907-.566406-.566407-.566406zm0 .140625c.238281 0 .425781.191406.425781.425781 0 .238282-.1875.425782-.425781.425782-.234375 0-.425781-.1875-.425781-.425782 0-.234375.191406-.425781.425781-.425781zm0 0" fill="#212121"/><g fill="#fff" fill-opacity=".235294"><path d="m4.226562 9.019531c.144532.082031.09375.4375-.113281.792969s-.488281.578125-.628906.496094c-.144531-.082032-.09375-.4375.113281-.792969.207032-.355469.488282-.578125.628906-.496094zm0 0"/><path d="m9.417969 3.761719c.140625.082031.089843.433593-.113281.792969-.207032.355468-.488282.578124-.632813.496093-.140625-.082031-.089844-.4375.117187-.792969.203126-.359374.484376-.578124.628907-.496093zm0 0"/></g></svg>

<?xml version="1.0" encoding="UTF-8"?>
<svg xmlns="http://www.w3.org/2000/svg" xmlns:xlink="http://www.w3.org/1999/xlink" width="24pt" height="24pt" viewBox="0 0 24 24" version="1.1">
<defs>
<radialGradient id="radial0" gradientUnits="userSpaceOnUse" cx="450.908936" cy="189.579361" fx="450.908936" fy="189.579361" r="21.166656" gradientTransform="matrix(0.000000130628,-0.0512744,-0.105479,-0.0000000666346,32.15201,44.486631)">
<stop offset="0" style="stop-color:rgb(0%,0%,0%);stop-opacity:0.313726;"/>
<stop offset="0.222222" style="stop-color:rgb(0%,0%,0%);stop-opacity:0.27451;"/>
<stop offset="1" style="stop-color:rgb(0%,0%,0%);stop-opacity:0;"/>
</radialGradient>
<radialGradient id="radial1" gradientUnits="userSpaceOnUse" cx="450.908936" cy="189.579361" fx="450.908936" fy="189.579361" r="21.166656" gradientTransform="matrix(-0.000000130628,0.0512744,0.105479,0.0000000666346,-8.337235,-2.187673)">
<stop offset="0" style="stop-color:rgb(0%,0%,0%);stop-opacity:0.313726;"/>
<stop offset="0.222222" style="stop-color:rgb(0%,0%,0%);stop-opacity:0.27451;"/>
<stop offset="1" style="stop-color:rgb(0%,0%,0%);stop-opacity:0;"/>
</radialGradient>
<radialGradient id="radial2" gradientUnits="userSpaceOnUse" cx="450.908936" cy="189.579361" fx="450.908936" fy="189.579361" r="21.166656" gradientTransform="matrix(-0.000000130628,-0.0512744,0.105479,-0.0000000666346,-8.337235,44.486631)">
<stop offset="0" style="stop-color:rgb(0%,0%,0%);stop-opacity:0.313726;"/>
<stop offset="0.222222" style="stop-color:rgb(0%,0%,0%);stop-opacity:0.27451;"/>
<stop offset="1" style="stop-color:rgb(0%,0%,0%);stop-opacity:0;"/>
</radialGradient>
<radialGradient id="radial3" gradientUnits="userSpaceOnUse" cx="450.908936" cy="189.579361" fx="450.908936" fy="189.579361" r="21.166656" gradientTransform="matrix(0.000000130628,0.0512744,-0.105479,0.0000000666346,32.152008,-2.187673)">
<stop offset="0" style="stop-color:rgb(0%,0%,0%);stop-opacity:0.313726;"/>
<stop offset="0.222222" style="stop-color:rgb(0%,0%,0%);stop-opacity:0.27451;"/>
<stop offset="1" style="stop-color:rgb(0%,0%,0%);stop-opacity:0;"/>
</radialGradient>
<linearGradient id="linear0" gradientUnits="userSpaceOnUse" x1="255.323059" y1="233.5" x2="255.323044" y2="254.666656" gradientTransform="matrix(0.01002,0,0,0.0410195,9.349039,11.571427)">
<stop offset="0" style="stop-color:rgb(0%,0%,0%);stop-opacity:0.27451;"/>
<stop offset="1" style="stop-color:rgb(0%,0%,0%);stop-opacity:0;"/>
</linearGradient>
<linearGradient id="linear1" gradientUnits="userSpaceOnUse" x1="264.583344" y1="233.5" x2="264.583344" y2="-62.833332" gradientTransform="matrix(0.0468795,0,0,0.0468795,0,10.079087)">
<stop offset="0" style="stop-color:rgb(100%,65.490198%,14.901961%);stop-opacity:1;"/>
<stop offset="1" style="stop-color:rgb(100%,71.764708%,30.19608%);stop-opacity:1;"/>
</linearGradient>
<linearGradient id="linear2" gradientUnits="userSpaceOnUse" x1="720" y1="1295.118164" x2="720" y2="175.118118" gradientTransform="matrix(0.0124035,0,0,0.0124035,0,0.00000000000000141)">
<stop offset="0" style="stop-color:rgb(25.882354%,64.705884%,96.078432%);stop-opacity:1;"/>
<stop offset="1" style="stop-color:rgb(39.215687%,70.980394%,96.470588%);stop-opacity:1;"/>
</linearGradient>
</defs>
<g id="surface1">
<path style=" stroke:none;fill-rule:nonzero;fill:url(#radial0);" d="M 12.402344 21.148438 L 14.386719 21.148438 L 14.386719 20.28125 L 12.402344 20.28125 Z M 12.402344 21.148438 "/>
<path style=" stroke:none;fill-rule:nonzero;fill:url(#radial1);" d="M 11.410156 21.148438 L 9.425781 21.148438 L 9.425781 22.019531 L 11.410156 22.019531 Z M 11.410156 21.148438 "/>
<path style=" stroke:none;fill-rule:nonzero;fill:url(#radial2);" d="M 11.410156 21.148438 L 9.425781 21.148438 L 9.425781 20.28125 L 11.410156 20.28125 Z M 11.410156 21.148438 "/>
<path style=" stroke:none;fill-rule:nonzero;fill:url(#radial3);" d="M 12.402344 21.148438 L 14.386719 21.148438 L 14.386719 22.019531 L 12.402344 22.019531 Z M 12.402344 21.148438 "/>
<path style=" stroke:none;fill-rule:nonzero;fill:url(#linear0);" d="M 11.410156 20.933594 L 12.402344 20.933594 L 12.402344 22.019531 L 11.410156 22.019531 Z M 11.410156 20.933594 "/>
<path style=" stroke:none;fill-rule:nonzero;fill:rgb(0%,0%,0%);fill-opacity:0.235294;" d="M 10.417969 2.855469 C 10.144531 2.855469 9.921875 3.074219 9.921875 3.351562 C 9.921875 3.394531 9.929688 3.433594 9.9375 3.472656 C 9.992188 3.261719 10.1875 3.101562 10.417969 3.101562 C 10.652344 3.101562 10.84375 3.261719 10.898438 3.472656 C 10.910156 3.433594 10.914062 3.394531 10.914062 3.351562 C 10.914062 3.074219 10.695312 2.855469 10.417969 2.855469 Z M 7.582031 5.832031 C 7.5625 5.914062 7.546875 5.996094 7.53125 6.078125 L 11.90625 6.078125 L 11.90625 5.832031 Z M 16.371094 9.800781 C 16.371094 10.625 15.707031 11.289062 14.882812 11.289062 L 8.929688 11.289062 C 8.105469 11.289062 7.441406 11.953125 7.441406 12.777344 L 7.441406 13.023438 C 7.441406 12.199219 8.105469 11.535156 8.929688 11.535156 L 14.882812 11.535156 C 15.707031 11.535156 16.371094 10.871094 16.371094 10.046875 Z M 2.484375 11.414062 C 2.480469 11.453125 2.480469 11.496094 2.480469 11.535156 C 2.480469 14.011719 4.695312 16.003906 7.441406 16.003906 L 7.441406 15.753906 C 4.738281 15.753906 2.554688 13.828125 2.484375 11.414062 Z M 2.484375 11.414062 "/>
<path style=" stroke:none;fill-rule:nonzero;fill:url(#linear1);" d="M 11.90625 21.027344 C 14.074219 21.027344 15.871094 19.328125 16.285156 17.054688 L 11.90625 17.054688 L 11.90625 16.0625 L 14.882812 16.0625 C 14.886719 16.0625 14.886719 16.0625 14.886719 16.0625 L 16.371094 16.0625 C 19.121094 16.0625 21.335938 14.074219 21.335938 11.597656 C 21.335938 9.125 19.121094 7.132812 16.371094 7.132812 L 16.371094 10.109375 C 16.371094 10.933594 15.707031 11.597656 14.882812 11.597656 L 8.929688 11.597656 C 8.105469 11.597656 7.441406 12.261719 7.441406 13.085938 L 7.441406 16.0625 C 7.441406 18.8125 9.433594 21.027344 11.90625 21.027344 Z M 13.394531 20.03125 C 13.121094 20.03125 12.898438 19.8125 12.898438 19.535156 C 12.898438 19.261719 13.121094 19.039062 13.394531 19.039062 C 13.671875 19.039062 13.890625 19.261719 13.890625 19.535156 C 13.890625 19.8125 13.671875 20.03125 13.394531 20.03125 Z M 13.394531 20.03125 "/>
<path style=" stroke:none;fill-rule:nonzero;fill:rgb(0%,0%,0%);fill-opacity:0.235294;" d="M 7.441406 10.109375 L 7.441406 13.582031 C 7.441406 12.757812 8.105469 12.09375 8.929688 12.09375 L 14.882812 12.09375 C 15.707031 12.09375 16.371094 11.429688 16.371094 10.605469 L 16.371094 10.109375 Z M 7.441406 10.109375 "/>
<path style=" stroke:none;fill-rule:nonzero;fill:url(#linear2);" d="M 11.90625 2.171875 C 9.738281 2.171875 7.941406 3.871094 7.53125 6.140625 L 11.90625 6.140625 L 11.90625 7.132812 L 7.441406 7.132812 C 4.695312 7.132812 2.480469 9.125 2.480469 11.597656 C 2.480469 14.074219 4.695312 16.0625 7.441406 16.0625 L 7.441406 13.085938 C 7.441406 12.261719 8.105469 11.597656 8.929688 11.597656 L 14.882812 11.597656 C 15.707031 11.597656 16.371094 10.933594 16.371094 10.109375 L 16.371094 7.132812 C 16.371094 4.386719 14.382812 2.171875 11.90625 2.171875 Z M 10.417969 3.164062 C 10.695312 3.164062 10.914062 3.386719 10.914062 3.660156 C 10.914062 3.933594 10.695312 4.15625 10.417969 4.15625 C 10.144531 4.15625 9.921875 3.933594 9.921875 3.660156 C 9.921875 3.386719 10.144531 3.164062 10.417969 3.164062 Z M 10.417969 3.164062 "/>
<path style=" stroke:none;fill-rule:nonzero;fill:rgb(100%,100%,100%);fill-opacity:0.392157;" d="M 11.90625 2.234375 C 9.738281 2.234375 7.941406 3.933594 7.53125 6.203125 L 7.582031 6.203125 C 8.074219 4.058594 9.820312 2.480469 11.90625 2.480469 C 14.382812 2.480469 16.371094 4.695312 16.371094 7.445312 L 16.371094 7.195312 C 16.371094 4.445312 14.382812 2.234375 11.90625 2.234375 Z M 9.9375 3.847656 C 9.929688 3.886719 9.921875 3.925781 9.921875 3.96875 C 9.921875 4.246094 10.144531 4.464844 10.417969 4.464844 C 10.695312 4.464844 10.914062 4.246094 10.914062 3.96875 C 10.914062 3.925781 10.910156 3.886719 10.898438 3.847656 C 10.84375 4.0625 10.652344 4.21875 10.417969 4.21875 C 10.1875 4.21875 9.992188 4.0625 9.9375 3.847656 Z M 8.929688 7.195312 L 7.441406 7.195312 C 4.695312 7.195312 2.480469 9.1875 2.480469 11.660156 C 2.480469 11.703125 2.480469 11.742188 2.484375 11.785156 C 2.554688 9.367188 4.738281 7.445312 7.441406 7.445312 L 11.90625 7.445312 L 11.90625 7.195312 Z M 8.929688 7.195312 "/>
<path style=" stroke:none;fill-rule:nonzero;fill:rgb(100%,100%,100%);fill-opacity:0.392157;" d="M 16.371094 7.195312 L 16.371094 7.445312 C 19.074219 7.445312 21.257812 9.367188 21.332031 11.785156 C 21.332031 11.742188 21.335938 11.703125 21.335938 11.660156 C 21.335938 9.1875 19.121094 7.195312 16.371094 7.195312 Z M 11.90625 17.117188 L 11.90625 17.367188 L 16.234375 17.367188 C 16.25 17.285156 16.269531 17.203125 16.285156 17.117188 Z M 12.914062 19.722656 C 12.90625 19.761719 12.898438 19.804688 12.898438 19.847656 C 12.898438 20.121094 13.121094 20.34375 13.394531 20.34375 C 13.671875 20.34375 13.890625 20.121094 13.890625 19.847656 C 13.890625 19.804688 13.886719 19.761719 13.875 19.722656 C 13.820312 19.9375 13.628906 20.09375 13.394531 20.09375 C 13.164062 20.09375 12.96875 19.9375 12.914062 19.722656 Z M 12.914062 19.722656 "/>
<path style=" stroke:none;fill-rule:nonzero;fill:rgb(0%,0%,0%);fill-opacity:0.235294;" d="M 21.332031 11.414062 C 21.257812 13.828125 19.074219 15.753906 16.371094 15.753906 L 14.886719 15.753906 C 14.886719 15.753906 14.886719 15.753906 14.882812 15.753906 L 11.90625 15.753906 L 11.90625 16.003906 L 14.882812 16.003906 C 14.886719 16.003906 14.886719 16.003906 14.886719 16.003906 L 16.371094 16.003906 C 19.121094 16.003906 21.335938 14.011719 21.335938 11.535156 C 21.335938 11.496094 21.332031 11.453125 21.332031 11.414062 Z M 7.441406 15.753906 L 7.441406 16.003906 C 7.441406 18.75 9.433594 20.964844 11.90625 20.964844 C 14.074219 20.964844 15.871094 19.265625 16.285156 16.996094 L 16.234375 16.996094 C 15.738281 19.140625 13.996094 20.714844 11.90625 20.714844 C 9.433594 20.714844 7.441406 18.503906 7.441406 15.753906 Z M 13.394531 18.730469 C 13.121094 18.730469 12.898438 18.953125 12.898438 19.226562 C 12.898438 19.269531 12.90625 19.3125 12.914062 19.351562 C 12.96875 19.136719 13.164062 18.980469 13.394531 18.980469 C 13.628906 18.980469 13.820312 19.136719 13.875 19.351562 C 13.886719 19.3125 13.890625 19.269531 13.890625 19.226562 C 13.890625 18.953125 13.671875 18.730469 13.394531 18.730469 Z M 13.394531 18.730469 "/>
<path style=" stroke:none;fill-rule:nonzero;fill:rgb(12.941177%,12.941177%,12.941177%);fill-opacity:1;" d="M 11.90625 2.101562 C 9.703125 2.101562 7.878906 3.828125 7.460938 6.128906 C 7.457031 6.148438 7.464844 6.171875 7.476562 6.1875 C 7.488281 6.203125 7.511719 6.210938 7.53125 6.210938 L 11.835938 6.210938 L 11.835938 7.0625 L 8.929688 7.0625 C 8.929688 7.0625 8.925781 7.0625 8.929688 7.0625 L 7.441406 7.0625 C 4.660156 7.0625 2.410156 9.082031 2.410156 11.597656 C 2.410156 14.113281 4.660156 16.132812 7.441406 16.132812 C 7.480469 16.132812 7.511719 16.101562 7.511719 16.0625 L 7.511719 13.085938 C 7.511719 12.300781 8.144531 11.667969 8.929688 11.667969 L 14.882812 11.667969 C 15.746094 11.667969 16.441406 10.972656 16.441406 10.109375 L 16.441406 7.132812 C 16.441406 4.351562 14.421875 2.101562 11.90625 2.101562 Z M 11.90625 2.242188 C 14.339844 2.242188 16.300781 4.417969 16.300781 7.132812 L 16.300781 10.109375 C 16.300781 10.898438 15.671875 11.527344 14.882812 11.527344 L 8.929688 11.527344 C 8.066406 11.527344 7.371094 12.226562 7.371094 13.085938 L 7.371094 15.992188 C 4.691406 15.957031 2.550781 14.007812 2.550781 11.597656 C 2.550781 9.167969 4.726562 7.203125 7.441406 7.203125 L 11.90625 7.203125 C 11.945312 7.203125 11.976562 7.171875 11.976562 7.132812 L 11.976562 6.140625 C 11.976562 6.101562 11.945312 6.070312 11.90625 6.070312 L 7.617188 6.070312 C 8.050781 3.871094 9.804688 2.242188 11.90625 2.242188 Z M 10.417969 3.09375 C 10.105469 3.09375 9.851562 3.347656 9.851562 3.660156 C 9.851562 3.972656 10.105469 4.226562 10.417969 4.226562 C 10.730469 4.226562 10.984375 3.972656 10.984375 3.660156 C 10.984375 3.347656 10.730469 3.09375 10.417969 3.09375 Z M 10.417969 3.234375 C 10.65625 3.234375 10.84375 3.421875 10.84375 3.660156 C 10.84375 3.898438 10.65625 4.085938 10.417969 4.085938 C 10.183594 4.085938 9.992188 3.898438 9.992188 3.660156 C 9.992188 3.421875 10.183594 3.234375 10.417969 3.234375 Z M 10.417969 3.234375 "/>
<path style=" stroke:none;fill-rule:nonzero;fill:rgb(12.941177%,12.941177%,12.941177%);fill-opacity:1;" d="M 16.371094 7.0625 C 16.332031 7.0625 16.300781 7.09375 16.300781 7.132812 L 16.300781 10.109375 C 16.300781 10.898438 15.671875 11.527344 14.882812 11.527344 L 8.929688 11.527344 C 8.066406 11.527344 7.371094 12.226562 7.371094 13.085938 L 7.371094 16.0625 C 7.371094 18.847656 9.390625 21.097656 11.90625 21.097656 C 14.113281 21.097656 15.9375 19.367188 16.351562 17.070312 C 16.355469 17.046875 16.351562 17.027344 16.339844 17.011719 C 16.324219 16.996094 16.304688 16.984375 16.285156 16.984375 L 11.976562 16.984375 L 11.976562 16.132812 L 14.882812 16.132812 C 14.886719 16.132812 14.886719 16.132812 14.886719 16.132812 L 16.371094 16.132812 C 19.15625 16.132812 21.40625 14.113281 21.40625 11.597656 C 21.40625 9.082031 19.15625 7.0625 16.371094 7.0625 Z M 16.441406 7.207031 C 19.125 7.242188 21.265625 9.1875 21.265625 11.597656 C 21.265625 14.03125 19.085938 15.992188 16.371094 15.992188 L 14.886719 15.992188 C 14.882812 15.992188 14.882812 15.992188 14.882812 15.992188 L 11.90625 15.992188 C 11.867188 15.992188 11.835938 16.023438 11.835938 16.0625 L 11.835938 17.054688 C 11.835938 17.09375 11.867188 17.125 11.90625 17.125 L 16.195312 17.125 C 15.761719 19.324219 14.011719 20.957031 11.90625 20.957031 C 9.476562 20.957031 7.511719 18.777344 7.511719 16.0625 L 7.511719 13.085938 C 7.511719 12.300781 8.144531 11.667969 8.929688 11.667969 L 14.882812 11.667969 C 15.746094 11.667969 16.441406 10.972656 16.441406 10.109375 Z M 13.394531 18.96875 C 13.082031 18.96875 12.828125 19.222656 12.828125 19.535156 C 12.828125 19.851562 13.082031 20.101562 13.394531 20.101562 C 13.707031 20.101562 13.960938 19.851562 13.960938 19.535156 C 13.960938 19.222656 13.707031 18.96875 13.394531 18.96875 Z M 13.394531 19.109375 C 13.632812 19.109375 13.820312 19.300781 13.820312 19.535156 C 13.820312 19.773438 13.632812 19.960938 13.394531 19.960938 C 13.160156 19.960938 12.96875 19.773438 12.96875 19.535156 C 12.96875 19.300781 13.160156 19.109375 13.394531 19.109375 Z M 13.394531 19.109375 "/>
<path style=" stroke:none;fill-rule:nonzero;fill:rgb(100%,100%,100%);fill-opacity:0.235294;" d="M 4.226562 9.019531 C 4.371094 9.101562 4.320312 9.457031 4.113281 9.8125 C 3.90625 10.167969 3.625 10.390625 3.484375 10.308594 C 3.339844 10.226562 3.390625 9.871094 3.597656 9.515625 C 3.804688 9.160156 4.085938 8.9375 4.226562 9.019531 Z M 4.226562 9.019531 "/>
<path style=" stroke:none;fill-rule:nonzero;fill:rgb(100%,100%,100%);fill-opacity:0.235294;" d="M 9.417969 3.761719 C 9.558594 3.84375 9.507812 4.195312 9.304688 4.554688 C 9.097656 4.910156 8.816406 5.132812 8.671875 5.050781 C 8.53125 4.96875 8.582031 4.613281 8.789062 4.257812 C 8.992188 3.898438 9.273438 3.679688 9.417969 3.761719 Z M 9.417969 3.761719 "/>
</g>
</svg>
